static/img/cam-server/ico-content-ai-show.svg

<svg width="52" height="20" viewBox="0 0 52 20" fill="none" xmlns="http://www.w3.org/2000/svg">
<path d="M46.635 13.8401C44.2517 16.6135 41.3733 18.0001 38 18.0001C35.1609 18.0001 32.6859 17.0135 30.575 15.0401C30.1767 14.6793 29.7917 14.2793 29.42 13.8401C28.3933 12.6668 27.5867 11.3868 27 10.0001C27.5867 8.61346 28.3933 7.33346 29.42 6.16012C31.7667 3.38679 34.6267 2.00012 38 2.00012C40.8495 2.00012 43.3429 2.98679 45.48 4.96012C45.88 5.3295 46.265 5.7295 46.635 6.16012C47.6617 7.33346 48.45 8.61346 49 10.0001C48.45 11.3868 47.6617 12.6668 46.635 13.8401Z" fill="white" stroke="black" stroke-linecap="round" stroke-linejoin="round"/>
<circle cx="38" cy="9.91684" r="4.16333" fill="black"/>
<rect x="3.5" y="2.50012" width="17" height="13" rx="2.5" fill="url(#paint0_linear_1267_14670)" stroke="black"/>
<path d="M15.9268 5.22256L15.9268 12.9999L14.96 12.9999L14.96 5.22256L15.9268 5.22256Z" fill="#EEEEEE"/>
<path d="M8.20313 12.9999L7.19336 12.9999L10.04 5.22256L11.0605 5.22256L13.9072 12.9999L12.8867 12.9999L12.1079 10.8085L8.98193 10.8085L8.20313 12.9999ZM9.27734 9.95987L11.8125 9.95987L10.5771 6.4794L10.5127 6.4794L9.27734 9.95987Z" fill="#EEEEEE"/>
<defs>
<linearGradient id="paint0_linear_1267_14670" x1="4" y1="3.00012" x2="20" y2="15.0001" gradientUnits="userSpaceOnUse">
<stop stop-color="#2F9AFF"/>
<stop offset="1" stop-color="#FF61EA"/>
</linearGradient>
</defs>
</svg>

<svg xmlns="http://www.w3.org/2000/svg" width="52" height="20" fill="none" viewBox="0 0 52 20"><path fill="#fff" stroke="#000" stroke-linecap="round" stroke-linejoin="round" d="M46.635 13.84Q43.06 18 38 18q-4.26 0-7.425-2.96-.597-.54-1.155-1.2A14.2 14.2 0 0 1 27 10a14.2 14.2 0 0 1 2.42-3.84Q32.94 2 38 2q4.275 0 7.48 2.96.6.555 1.155 1.2A13.2 13.2 0 0 1 49 10a13.2 13.2 0 0 1-2.365 3.84"/><circle cx="38" cy="9.917" r="4.163" fill="#000"/><rect width="17" height="13" x="3.5" y="2.5" fill="url(#a)" stroke="#000" rx="2.5"/><path fill="#eee" d="M15.927 5.223V13h-.967V5.223zM8.203 13h-1.01l2.847-7.777h1.02L13.907 13h-1.02l-.78-2.191H8.983zm1.074-3.04h2.536l-1.236-3.48h-.064z"/><defs><linearGradient id="a" x1="4" x2="20" y1="3" y2="15" gradientUnits="userSpaceOnUse"><stop stop-color="#2f9aff"/><stop offset="1" stop-color="#ff61ea"/></linearGradient></defs></svg>
